X: 19601
T: Jan's
R: polka
M: 2/4
K: Dmajor
A Bc|:d2dc|d2dc|dB AF|ED EF|
Ee ed|e2 ef|g2 g(f|f)a ge|
d2 dc|d2 dc|dB AF|ED EF|
(3DEF GA|BA d>B|AF EF|1 Dg fe:|2 DE FD||
|:E2ED|E2ED|EF GA|BA Bd|
c2Ac|d2dc|dB AF|ED EF|
E2ED|E2ED|EF GA|BA Bd|
c2Ac|dB AF|EA FE|1 DE FD:|2 Dg fe||

